#define im_width 32
#define im_height 32
static char im_bits[] = {
0x00,0x00,0x00,0x00,0x00,0x00,0x00,0x00,0x00,0x00,0x00,0x00,0x00,0x00,0x00,
0x00,0x00,0x00,0x00,0x00,0x00,0x00,0x00,0x00,0x00,0x00,0x00,0x00,0x00,0x18,
0x30,0x00,0x00,0x3f,0xf8,0x00,0x80,0x3f,0xf8,0x01,0x80,0x1f,0xf0,0x03,0x80,
0x0f,0xf0,0x03,0xc0,0x1f,0xf0,0x03,0xe0,0x3f,0xf8,0x03,0xc0,0x79,0x3c,0x03,
0x80,0xf0,0x1f,0x02,0x00,0xe0,0x0f,0x06,0x00,0xc0,0x07,0x00,0x00,0xc0,0x07,
0x00,0x00,0xe0,0x0f,0x00,0x00,0xf0,0x1e,0x00,0x00,0x7c,0x3c,0x00,0x00,0x3e,
0x78,0x00,0x00,0x1f,0xf0,0x00,0x00,0x0e,0xe0,0x00,0x00,0x04,0x40,0x00,0x00,
0x00,0x00,0x00,0x00,0x00,0x00,0x00,0x00,0x00,0x00,0x00,0x00,0x00,0x00,0x00,
0x00,0x00,0x00,0x00,0x00,0x00,0x00,0x00
};
