#define im_width 48
#define im_height 48
static char im_bits[] = {
0x00,0x00,0x00,0x00,0x00,0x00,0x00,0x00,0x00,0x00,0x00,0x00,0x00,0x00,0x00,
0x00,0x00,0x00,0x00,0x00,0x00,0x00,0x00,0x00,0x00,0x00,0x00,0x00,0x00,0x00,
0x00,0x00,0x00,0x00,0x00,0x00,0x00,0x00,0x00,0x00,0x00,0x00,0x00,0x00,0x00,
0x00,0x00,0x00,0x00,0x00,0x00,0x00,0x00,0x00,0x00,0x00,0x00,0x00,0x00,0x00,
0x00,0x20,0x00,0x00,0x02,0x00,0x00,0x70,0x00,0x00,0x07,0x00,0x00,0xf8,0x00,
0x80,0x0f,0x00,0x00,0xf0,0x01,0xc0,0x07,0x00,0x00,0xe0,0x03,0xe0,0x03,0x00,
0x00,0xc0,0x07,0xf0,0x01,0x00,0x00,0x80,0x0f,0xf8,0x00,0x00,0x00,0x00,0x1f,
0x7c,0x00,0x00,0x00,0x00,0x3e,0x3e,0x00,0x00,0x00,0x00,0xfc,0x1f,0x00,0x00,
0x00,0x00,0xf8,0x0f,0x00,0x00,0x00,0x00,0xf0,0x07,0x00,0x00,0x00,0x00,0xe0,
0x07,0x00,0x00,0x00,0x00,0xf0,0x07,0x00,0x00,0x00,0x00,0xf8,0x0f,0x00,0x00,
0x00,0x00,0xfc,0x1f,0x00,0x00,0x00,0x00,0x7e,0x3e,0x00,0x00,0x00,0x00,0x1f,
0x7c,0x00,0x00,0x00,0x80,0x0f,0xf8,0x00,0x00,0x00,0xc0,0x07,0xf0,0x01,0x00,
0x00,0xe0,0x03,0xe0,0x03,0x00,0x00,0xf0,0x01,0xc0,0x07,0x00,0x00,0xf8,0x00,
0x80,0x0f,0x00,0x00,0x70,0x00,0x00,0x07,0x00,0x00,0x60,0x00,0x00,0x02,0x00,
0x00,0x00,0x00,0x00,0x00,0x00,0x00,0x00,0x00,0x00,0x00,0x00,0x00,0x00,0x00,
0x00,0x00,0x00,0x00,0x00,0x00,0x00,0x00,0x00,0x00,0x00,0x00,0x00,0x00,0x00,
0x00,0x00,0x00,0x00,0x00,0x00,0x00,0x00,0x00,0x00,0x00,0x00,0x00,0x00,0x00,
0x00,0x00,0x00,0x00,0x00,0x00,0x00,0x00,0x00,0x00,0x00,0x00,0x00,0x00,0x00,
0x00,0x00,0x00,0x00,0x00,0x00,0x00,0x00,0x00,0x00,0x00,0x00,0x00,0x00,0x00,
0x00,0x00,0x00
};
