#define im_width 32
#define im_height 32
static char im_bits[] = {
0x00,0x00,0x00,0x00,0x00,0x00,0x00,0x00,0x00,0x00,0x00,0x00,0x00,0x00,0x00,
0x00,0x00,0x00,0x00,0x00,0x00,0x00,0x00,0x00,0x00,0x00,0x00,0x00,0x00,0x02,
0x40,0x00,0x00,0x07,0xe0,0x00,0x00,0x0e,0x70,0x00,0x00,0x1c,0x38,0x00,0x00,
0x38,0x1c,0x00,0x00,0x70,0x0e,0x00,0x00,0xe0,0x07,0x00,0x00,0xc0,0x03,0x00,
0x00,0xc0,0x03,0x00,0x00,0xe0,0x07,0x00,0x00,0x70,0x0e,0x00,0x00,0x38,0x1e,
0x00,0x00,0x1c,0x3c,0x00,0x00,0x0e,0x78,0x00,0x00,0x07,0xe0,0x00,0x00,0x02,
0x60,0x00,0x00,0x00,0x00,0x00,0x00,0x00,0x00,0x00,0x00,0x00,0x00,0x00,0x00,
0x00,0x00,0x00,0x00,0x00,0x00,0x00,0x00,0x00,0x00,0x00,0x00,0x00,0x00,0x00,
0x00,0x00,0x00,0x00,0x00,0x00,0x00,0x00
};
