#define im_width 32
#define im_height 32
static char im_bits[] = {
0x00,0x00,0x00,0x00,0x00,0x00,0x00,0x00,0x00,0x00,0x00,0x00,0x00,0x00,0x00,
0x00,0x00,0x00,0x00,0x00,0x00,0xe0,0x07,0x00,0x00,0xf0,0x07,0x00,0x00,0x30,
0x04,0x00,0x00,0x30,0x04,0x00,0x00,0x30,0x04,0x00,0x00,0x30,0x04,0x00,0x00,
0x30,0x04,0x00,0x00,0x30,0x04,0x00,0x00,0x30,0x04,0x00,0x00,0x30,0x04,0x00,
0x00,0x30,0x04,0x00,0x00,0x30,0x04,0x00,0x00,0x30,0x04,0x00,0x00,0x30,0x04,
0x00,0x00,0x30,0x04,0x00,0x00,0x3e,0x7c,0x00,0x00,0x1c,0x38,0x00,0x00,0x38,
0x1c,0x00,0x00,0x70,0x0e,0x00,0x00,0xe0,0x07,0x00,0x00,0xc0,0x03,0x00,0x00,
0x80,0x01,0x00,0x00,0x00,0x00,0x00,0x00,0x00,0x00,0x00,0x00,0x00,0x00,0x00,
0x00,0x00,0x00,0x00,0x00,0x00,0x00,0x00
};
