#define im_width 48
#define im_height 48
static char im_bits[] = {
0x00,0x00,0x00,0x00,0x00,0x00,0x00,0x00,0x00,0x00,0x00,0x00,0x00,0x00,0x00,
0x00,0x00,0x00,0x00,0x00,0x00,0x00,0x00,0x00,0x00,0x00,0x00,0x00,0x00,0x00,
0x00,0x00,0x00,0x00,0x00,0x00,0x00,0x00,0x00,0x00,0x00,0x00,0x00,0x00,0xfc,
0x1f,0x00,0x00,0x00,0x00,0xfc,0x1f,0x00,0x00,0x00,0x00,0x1c,0x1c,0x00,0x00,
0x00,0x00,0x1c,0x1c,0x00,0x00,0x00,0x00,0x1c,0x1c,0x00,0x00,0x00,0x00,0x1c,
0x1c,0x00,0x00,0x00,0x00,0x1c,0x1c,0x00,0x00,0x00,0x00,0x1c,0x1c,0x00,0x00,
0x00,0x00,0x1c,0x1c,0x00,0x00,0x00,0x00,0x1c,0x1c,0x00,0x00,0x00,0x00,0x1c,
0x1c,0x00,0x00,0x00,0x00,0x1c,0x1c,0x00,0x00,0x00,0x00,0x1c,0x1c,0x00,0x00,
0x00,0x00,0x1c,0x1c,0x00,0x00,0x00,0x00,0x1c,0x1c,0x00,0x00,0x00,0x00,0x1c,
0x1c,0x00,0x00,0x00,0x00,0x1c,0x1c,0x00,0x00,0x00,0x00,0x1c,0x1c,0x00,0x00,
0x00,0x00,0x1c,0x1c,0x00,0x00,0x00,0x00,0x1c,0x1c,0x00,0x00,0x00,0x00,0x1c,
0x1c,0x00,0x00,0x00,0x00,0x1c,0x1c,0x00,0x00,0x00,0xe0,0x1f,0xfc,0x03,0x00,
0x00,0xe0,0x1f,0xfc,0x03,0x00,0x00,0x80,0x1f,0xf8,0x01,0x00,0x00,0x00,0x07,
0xf0,0x00,0x00,0x00,0x00,0x0e,0x78,0x00,0x00,0x00,0x00,0x1c,0x3c,0x00,0x00,
0x00,0x00,0x38,0x1e,0x00,0x00,0x00,0x00,0x70,0x0f,0x00,0x00,0x00,0x00,0xe0,
0x07,0x00,0x00,0x00,0x00,0xc0,0x03,0x00,0x00,0x00,0x00,0x80,0x01,0x00,0x00,
0x00,0x00,0x00,0x00,0x00,0x00,0x00,0x00,0x00,0x00,0x00,0x00,0x00,0x00,0x00,
0x00,0x00,0x00,0x00,0x00,0x00,0x00,0x00,0x00,0x00,0x00,0x00,0x00,0x00,0x00,
0x00,0x00,0x00,0x00,0x00,0x00,0x00,0x00,0x00,0x00,0x00,0x00,0x00,0x00,0x00,
0x00,0x00,0x00
};
