#define im_width 48
#define im_height 48
static char im_bits[] = {
0x00,0x00,0x00,0x00,0x00,0x00,0x00,0x00,0x00,0x00,0x00,0x00,0x00,0x00,0x00,
0x00,0x00,0x00,0x00,0x00,0x00,0x00,0x00,0x00,0x00,0x00,0x00,0x00,0x00,0x00,
0x00,0x00,0x00,0x00,0x00,0x00,0x00,0x00,0x00,0x00,0x00,0x00,0x00,0x00,0x00,
0x00,0x00,0x00,0x00,0x00,0x00,0x00,0x00,0x00,0x00,0x00,0x00,0x00,0x00,0x00,
0x00,0x00,0x00,0x00,0x00,0x00,0x00,0x00,0x00,0x00,0x00,0x00,0x00,0x00,0x00,
0x00,0x00,0x00,0x00,0x00,0xe0,0x01,0x00,0x00,0x00,0x00,0xf8,0x07,0x00,0x00,
0x00,0x00,0xfc,0x0f,0x00,0x00,0x00,0x00,0x7e,0x1e,0x00,0x00,0x00,0x00,0x1e,
0x1c,0x00,0x00,0x00,0x80,0xff,0x1c,0x00,0x00,0x00,0xc0,0xff,0x1c,0x00,0x00,
0x00,0xe0,0xef,0x1d,0x00,0x00,0x00,0xe0,0xcf,0x1f,0x00,0x00,0x00,0xe0,0xde,
0x1f,0x00,0x00,0x00,0xe0,0xfc,0x0f,0x00,0x00,0x00,0xe0,0xf8,0x07,0x00,0x00,
0x00,0xe0,0xe0,0x01,0x00,0x00,0x00,0xe0,0xf1,0x01,0x00,0x00,0x00,0xc0,0xff,
0x00,0x00,0x00,0x00,0x80,0x7f,0x00,0x00,0x00,0x00,0x00,0x1e,0x00,0x00,0x00,
0x00,0x00,0x00,0x00,0x00,0x00,0x00,0x00,0x00,0x00,0x00,0x00,0x00,0x00,0x00,
0x00,0x00,0x00,0x00,0x00,0x00,0x00,0x00,0x00,0x00,0x00,0x00,0x00,0x00,0x00,
0x00,0x00,0x00,0x00,0x00,0x00,0x00,0x00,0x00,0x00,0x00,0x00,0x00,0x00,0x00,
0x00,0x00,0x00,0x00,0x00,0x00,0x00,0x00,0x00,0x00,0x00,0x00,0x00,0x00,0x00,
0x00,0x00,0x00,0x00,0x00,0x00,0x00,0x00,0x00,0x00,0x00,0x00,0x00,0x00,0x00,
0x00,0x00,0x00,0x00,0x00,0x00,0x00,0x00,0x00,0x00,0x00,0x00,0x00,0x00,0x00,
0x00,0x00,0x00,0x00,0x00,0x00,0x00,0x00,0x00,0x00,0x00,0x00,0x00,0x00,0x00,
0x00,0x00,0x00
};
