#define im_width 32
#define im_height 32
static char im_bits[] = {
0x00,0x00,0x00,0x00,0x00,0x00,0x00,0x00,0x00,0x00,0x00,0x00,0x00,0x00,0x00,
0x00,0x00,0x00,0x00,0x00,0x00,0x00,0x00,0x00,0x00,0x00,0x00,0x00,0x00,0x80,
0xff,0x00,0x00,0x80,0xff,0x00,0x00,0x00,0xff,0x00,0x00,0x00,0xf8,0x00,0x00,
0x00,0xfc,0x00,0x00,0x00,0xce,0x00,0x00,0x00,0xcf,0x00,0x00,0x80,0xc7,0x00,
0x00,0xc0,0xc3,0x00,0x00,0xe0,0x01,0x00,0x00,0xf0,0x00,0x00,0x00,0x78,0x00,
0x00,0x00,0x3c,0x00,0x00,0x00,0x1e,0x00,0x00,0x00,0x0f,0x00,0x00,0x00,0x06,
0x00,0x00,0x00,0x00,0x00,0x00,0x00,0x00,0x00,0x00,0x00,0x00,0x00,0x00,0x00,
0x00,0x00,0x00,0x00,0x00,0x00,0x00,0x00,0x00,0x00,0x00,0x00,0x00,0x00,0x00,
0x00,0x00,0x00,0x00,0x00,0x00,0x00,0x00
};
