#define im_width 32
#define im_height 32
static char im_bits[] = {
0x00,0x00,0x00,0x00,0x00,0x00,0x00,0x00,0x00,0x00,0x00,0x00,0x00,0x00,0x00,
0x00,0x00,0x00,0x00,0x00,0x00,0x00,0x00,0x00,0x00,0x20,0x00,0x00,0x00,0xfc,
0x03,0x00,0x00,0xff,0x07,0x00,0x80,0x0f,0x0f,0x00,0xc0,0x03,0x1e,0x00,0xc0,
0x01,0x39,0x02,0xe0,0x80,0x3b,0x07,0xe0,0x80,0xbf,0x07,0xe0,0x00,0xff,0x03,
0xe0,0x00,0xfe,0x01,0xe0,0x00,0xfc,0x00,0xe0,0x00,0x78,0x00,0xe0,0x00,0x30,
0x00,0xc0,0x01,0x00,0x00,0xc0,0x03,0x06,0x00,0x80,0x8f,0x0f,0x00,0x00,0xff,
0x07,0x00,0x00,0xfc,0x01,0x00,0x00,0x00,0x00,0x00,0x00,0x00,0x00,0x00,0x00,
0x00,0x00,0x00,0x00,0x00,0x00,0x00,0x00,0x00,0x00,0x00,0x00,0x00,0x00,0x00,
0x00,0x00,0x00,0x00,0x00,0x00,0x00,0x00
};
